contributed-vectors/lantern.svg

<svg xmlns="http://www.w3.org/2000/svg" width="192" height="192" fill="none"><path fill="#9ABEFF" fill-rule="evenodd" d="M96 184c48.601 0 88-39.399 88-88S144.601 8 96 8 8 47.399 8 96s39.399 88 88 88Z" clip-rule="evenodd"/><path fill="#fff" fill-rule="evenodd" d="M107.875 59.6 102.688 44H92.312l-5.187 15.6L56 75.2h10.375l3.112 15.6 2.076 10.4 5.187 26 10.375 10.4 5.188 10.4h10.375l5.187-10.4 10.375-10.4 10.375-52H139l-31.125-15.6ZM86.295 122h22.41l9.545-46.8h-41.5l9.545 46.8Z" clip-rule="evenodd"/></svg>

<svg width="192" height="192" viewBox="0 0 192 192" fill="none" xmlns="http://www.w3.org/2000/svg">
<path fill-rule="evenodd" clip-rule="evenodd" d="M96 184C144.601 184 184 144.601 184 96C184 47.399 144.601 8 96 8C47.399 8 8 47.399 8 96C8 144.601 47.399 184 96 184Z" fill="#9ABEFF"/>
<path fill-rule="evenodd" clip-rule="evenodd" d="M107.875 59.6L102.688 44H92.3125L87.125 59.6L56 75.2H66.375L69.4875 90.8L71.5625 101.2L76.75 127.2L87.125 137.6L92.3125 148H102.688L107.875 137.6L118.25 127.2L128.625 75.2H139L107.875 59.6ZM86.295 122H108.705L118.25 75.2H76.75L86.295 122Z" fill="white"/>
</svg>
